Newaita-dark/apps/48/com.github.georgekap1an.chores.svg

<svg height="48" viewBox="0 0 48 48" width="48" xmlns="http://www.w3.org/2000/svg" xmlns:xlink="http://www.w3.org/1999/xlink"><linearGradient id="a" gradientUnits="userSpaceOnUse" x1="23.81478" x2="23.81478" y1="42.0509045" y2="44.03547050005"><stop offset="0" stop-opacity=".27451"/><stop offset="1" stop-opacity="0"/></linearGradient><linearGradient id="b"><stop offset="0" stop-opacity=".313726"/><stop offset=".222222" stop-opacity=".27451"/><stop offset="1" stop-opacity="0"/></linearGradient><radialGradient id="c" cx="450.908936" cy="189.579361" gradientTransform="matrix(.00000026 -.117199 -.210958 -.00000015 75.219128 95.392999)" gradientUnits="userSpaceOnUse" r="21.166656" xlink:href="#b"/><radialGradient id="d" cx="450.908936" cy="189.579361" gradientTransform="matrix(-.00000026 .117199 .210958 .00000015 -27.589573 -11.29122)" gradientUnits="userSpaceOnUse" r="21.166656" xlink:href="#b"/><radialGradient id="e" cx="450.908936" cy="189.579361" gradientTransform="matrix(-.00000026 -.117199 .210958 -.00000015 -27.589573 95.392999)" gradientUnits="userSpaceOnUse" r="21.166656" xlink:href="#b"/><radialGradient id="f" cx="450.908936" cy="189.579361" gradientTransform="matrix(.00000026 .117199 -.210958 .00000015 75.219126 -11.291219)" gradientUnits="userSpaceOnUse" r="21.166656" xlink:href="#b"/><linearGradient id="g" gradientTransform="matrix(.113024 0 0 .326118 -8.78102 50.462022)" gradientUnits="userSpaceOnUse" x1="323.513245" x2="323.513245" y1="-141.414581" y2="-25.791676"><stop offset="0" stop-color="#8d6e63"/><stop offset="1" stop-color="#795548"/></linearGradient><linearGradient id="h" gradientUnits="userSpaceOnUse" x1="254" x2="254" y1="212.333328" y2="-115.75"><stop offset="0" stop-color="#e0e0e0"/><stop offset="1" stop-color="#eee"/></linearGradient><linearGradient id="i" gradientUnits="userSpaceOnUse" x1="23.814816" x2="23.814816" y1="42.05096580616" y2="4.34417306195"><stop offset="0" stop-color="#424242"/><stop offset="1" stop-color="#616161"/></linearGradient><path d="m11.90625 42.050781h23.816406v1.984375h-23.816406zm0 0" fill="url(#a)"/><path d="m35.722656 42.050781h3.96875v-1.984375h-3.96875zm0 0" fill="url(#c)"/><path d="m11.90625 42.050781h-3.96875v1.984375h3.96875zm0 0" fill="url(#d)"/><path d="m11.90625 42.050781h-3.96875v-1.984375h3.96875zm0 0" fill="url(#e)"/><path d="m35.722656 42.050781h3.96875v1.984375h-3.96875zm0 0" fill="url(#f)"/><path d="m9.921875 9.304688h27.785156c1.097657 0 1.984375.890624 1.984375 1.984374v28.777344c0 1.097656-.886718 1.984375-1.984375 1.984375h-27.785156c-1.09375 0-1.984375-.886719-1.984375-1.984375v-28.777344c0-1.09375.890625-1.984374 1.984375-1.984374zm0 0" fill="url(#g)"/><path d="m9.921875 9.445312c-1.097656 0-1.984375.882813-1.984375 1.984376v.246093c0-1.097656.886719-1.984375 1.984375-1.984375h27.785156c1.097657 0 1.984375.886719 1.984375 1.984375v-.246093c0-1.101563-.886718-1.984376-1.984375-1.984376zm0 0" fill="#fff" fill-opacity=".392157"/><path d="m9.921875 41.9375c-1.097656 0-1.984375-.882812-1.984375-1.984375v-.246094c0 1.097657.886719 1.984375 1.984375 1.984375h27.785156c1.097657 0 1.984375-.886718 1.984375-1.984375v.246094c0 1.101563-.886718 1.984375-1.984375 1.984375zm0 0" fill-opacity=".196078"/><path d="m105.823228-115.759477h296.3467c11.707215 0 21.164646 9.499093 21.164646 21.164646v306.929023c0 11.707215-9.457431 21.164645-21.164646 21.164645h-296.3467c-11.665553 0-21.164646-9.45743-21.164646-21.164645v-306.929023c0-11.665553 9.499093-21.164646 21.164646-21.164646zm0 0" fill="none" stroke="#212121" stroke-linecap="round" stroke-width="3" transform="matrix(.093759 0 0 .093759 0 20.158175)"/><path d="m126.987873-105.177154h254.017409c5.832777 0 10.582323 4.749546 10.582323 10.582323v296.3467c0 5.832776-4.749546 10.582323-10.582323 10.582323h-254.017409c-5.832776 0-10.582323-4.749547-10.582323-10.582323v-296.3467c0-5.832777 4.749547-10.582323 10.582323-10.582323zm0 0" fill="url(#h)" stroke="#212121" stroke-linecap="round" stroke-linejoin="round" stroke-width="3" transform="matrix(.093759 0 0 .093759 0 20.158175)"/><path d="m17.859375 4.34375c-.546875 0-.992187.441406-.992187.992188v.992187h-2.976563c-.546875 0-.992187.441406-.992187.992187v3.96875c0 .550782.445312.992188.992187.992188h19.847656c.550781 0 .992188-.441406.992188-.992188v-3.96875c0-.550781-.441407-.992187-.992188-.992187h-2.976562v-.992187c0-.550782-.445313-.992188-.992188-.992188zm0 0" fill="url(#i)"/><path d="m12.898438 11.289062v.992188c0 .550781.445312.992188.992187.992188h19.847656c.550781 0 .992188-.441407.992188-.992188v-.992188c0 .550782-.441407.992188-.992188.992188h-19.847656c-.546875 0-.992187-.441406-.992187-.992188zm0 0" fill-opacity=".235294"/><path d="m17.859375 4.34375c-.546875 0-.992187.441406-.992187.992188v.371093c0-.546875.445312-.992187.992187-.992187h11.910156c.546875 0 .992188.445312.992188.992187v-.371093c0-.550782-.445313-.992188-.992188-.992188zm-3.96875 1.984375c-.546875 0-.992187.441406-.992187.992187v.371094c0-.546875.445312-.992187.992187-.992187h2.976563v-.371094zm16.871094 0v.371094h2.976562c.550781 0 .992188.445312.992188.992187v-.371094c0-.550781-.441407-.992187-.992188-.992187zm0 0" fill="#fff" fill-opacity=".313726"/><path d="m719.931288 175.101398c-22.04514 0-39.996183 17.793577-39.996183 39.996183v39.996182h-119.988548c-22.04514 0-39.996182 17.793578-39.996182 39.996183v159.984731c0 22.202605 17.951042 39.996182 39.996182 39.996182h800.081119c22.202605 0 39.996182-17.793577 39.996182-39.996182v-159.984731c0-22.202605-17.793577-39.996183-39.996182-39.996183h-119.988548v-39.996182c0-22.202606-17.951043-39.996183-39.996183-39.996183zm0 0" fill="none" stroke="#212121" stroke-linecap="round" stroke-linejoin="round" stroke-width="11.338583" transform="scale(.0248071)"/><path d="m10.914062 39.074219v.496093c0 .550782.445313.992188.992188.992188h23.816406c.550782 0 .992188-.441406.992188-.992188v-.496093c0 .550781-.441406.992187-.992188.992187h-23.816406c-.546875 0-.992188-.441406-.992188-.992187zm0 0" fill-opacity=".235294"/><g fill="#78909c"><path d="m18.851562 15.257812h14.886719c.546875 0 .992188.445313.992188.992188 0 .550781-.445313.992188-.992188.992188h-14.886719c-.546874 0-.992187-.441407-.992187-.992188 0-.546875.445313-.992188.992187-.992188zm0 0"/><path d="m18.851562 21.214844h14.886719c.546875 0 .992188.441406.992188.992187 0 .546875-.445313.992188-.992188.992188h-14.886719c-.546874 0-.992187-.445313-.992187-.992188 0-.550781.445313-.992187.992187-.992187zm0 0"/><path d="m18.851562 27.167969h14.886719c.546875 0 .992188.441406.992188.992187 0 .546875-.445313.992188-.992188.992188h-14.886719c-.546874 0-.992187-.445313-.992187-.992188 0-.550781.445313-.992187.992187-.992187zm0 0"/><path d="m18.851562 33.121094h14.886719c.546875 0 .992188.410156.992188.917968v.148438c0 .507812-.445313.917969-.992188.917969h-14.886719c-.546874 0-.992187-.410157-.992187-.917969v-.148438c0-.507812.445313-.917968.992187-.917968zm0 0"/><path d="m14.882812 20.21875c-1.097656 0-1.984374.886719-1.984374 1.988281 0 1.097657.886718 1.984375 1.984374 1.984375 1.101563 0 1.984376-.886718 1.984376-1.984375 0-1.101562-.882813-1.988281-1.984376-1.988281zm0 .996094c.550782 0 .992188.441406.992188.992187 0 .546875-.441406.992188-.992188.992188-.546874 0-.992187-.445313-.992187-.992188 0-.550781.445313-.992187.992187-.992187zm0 0"/><path d="m14.882812 26.175781c-1.097656 0-1.984374.882813-1.984374 1.984375 0 1.097656.886718 1.984375 1.984374 1.984375 1.101563 0 1.984376-.886719 1.984376-1.984375 0-1.101562-.882813-1.984375-1.984376-1.984375zm0 .992188c.550782 0 .992188.441406.992188.992187 0 .546875-.441406.992188-.992188.992188-.546874 0-.992187-.445313-.992187-.992188 0-.550781.445313-.992187.992187-.992187zm0 0"/><path d="m14.882812 32.128906c-1.097656 0-1.984374.882813-1.984374 1.984375 0 1.097657.886718 1.984375 1.984374 1.984375 1.101563 0 1.984376-.886718 1.984376-1.984375 0-1.101562-.882813-1.984375-1.984376-1.984375zm0 .992188c.550782 0 .992188.441406.992188.992187s-.441406.992188-.992188.992188c-.546874 0-.992187-.441407-.992187-.992188s.445313-.992187.992187-.992187zm0 0"/><path d="m14.882812 14.265625c-1.097656 0-1.984374.886719-1.984374 1.984375 0 1.101562.886718 1.984375 1.984374 1.984375 1.101563 0 1.984376-.882813 1.984376-1.984375 0-1.097656-.882813-1.984375-1.984376-1.984375zm0 .992187c.550782 0 .992188.445313.992188.992188 0 .550781-.441406.992188-.992188.992188-.546874 0-.992187-.441407-.992187-.992188 0-.546875.445313-.992188.992187-.992188zm0 0"/></g><path d="m137.570196-57.556702 21.164646 21.164646 26.455807-31.746969" fill="none" stroke="#f44336" stroke-linecap="round" stroke-linejoin="round" stroke-width="12" transform="matrix(.093759 0 0 .093759 0 20.158175)"/><path d="m137.570196 5.978898 21.164646 21.164645 26.455807-31.788631" fill="none" stroke="#f44336" stroke-linecap="round" stroke-linejoin="round" stroke-width="12" transform="matrix(.093759 0 0 .093759 0 20.158175)"/></svg>

<?xml version="1.0" encoding="UTF-8"?>
<svg xmlns="http://www.w3.org/2000/svg" xmlns:xlink="http://www.w3.org/1999/xlink" width="48px" height="48px" viewBox="0 0 48 48" version="1.1">
<defs>
<linearGradient id="linear0" gradientUnits="userSpaceOnUse" x1="254" y1="233.5" x2="254" y2="254.666672" gradientTransform="matrix(0.093759,0,0,0.093759,-0.00000572259,20.158178)">
<stop offset="0" style="stop-color:rgb(0%,0%,0%);stop-opacity:0.27451;"/>
<stop offset="1" style="stop-color:rgb(0%,0%,0%);stop-opacity:0;"/>
</linearGradient>
<radialGradient id="radial0" gradientUnits="userSpaceOnUse" cx="450.908936" cy="189.579361" fx="450.908936" fy="189.579361" r="21.166656" gradientTransform="matrix(0.000000261256,-0.117199,-0.210958,-0.000000152308,75.219128,95.392999)">
<stop offset="0" style="stop-color:rgb(0%,0%,0%);stop-opacity:0.313726;"/>
<stop offset="0.222222" style="stop-color:rgb(0%,0%,0%);stop-opacity:0.27451;"/>
<stop offset="1" style="stop-color:rgb(0%,0%,0%);stop-opacity:0;"/>
</radialGradient>
<radialGradient id="radial1" gradientUnits="userSpaceOnUse" cx="450.908936" cy="189.579361" fx="450.908936" fy="189.579361" r="21.166656" gradientTransform="matrix(-0.000000261256,0.117199,0.210958,0.000000152308,-27.589573,-11.29122)">
<stop offset="0" style="stop-color:rgb(0%,0%,0%);stop-opacity:0.313726;"/>
<stop offset="0.222222" style="stop-color:rgb(0%,0%,0%);stop-opacity:0.27451;"/>
<stop offset="1" style="stop-color:rgb(0%,0%,0%);stop-opacity:0;"/>
</radialGradient>
<radialGradient id="radial2" gradientUnits="userSpaceOnUse" cx="450.908936" cy="189.579361" fx="450.908936" fy="189.579361" r="21.166656" gradientTransform="matrix(-0.000000261256,-0.117199,0.210958,-0.000000152308,-27.589573,95.392999)">
<stop offset="0" style="stop-color:rgb(0%,0%,0%);stop-opacity:0.313726;"/>
<stop offset="0.222222" style="stop-color:rgb(0%,0%,0%);stop-opacity:0.27451;"/>
<stop offset="1" style="stop-color:rgb(0%,0%,0%);stop-opacity:0;"/>
</radialGradient>
<radialGradient id="radial3" gradientUnits="userSpaceOnUse" cx="450.908936" cy="189.579361" fx="450.908936" fy="189.579361" r="21.166656" gradientTransform="matrix(0.000000261256,0.117199,-0.210958,0.000000152308,75.219126,-11.291219)">
<stop offset="0" style="stop-color:rgb(0%,0%,0%);stop-opacity:0.313726;"/>
<stop offset="0.222222" style="stop-color:rgb(0%,0%,0%);stop-opacity:0.27451;"/>
<stop offset="1" style="stop-color:rgb(0%,0%,0%);stop-opacity:0;"/>
</radialGradient>
<linearGradient id="linear1" gradientUnits="userSpaceOnUse" x1="323.513245" y1="-141.414581" x2="323.513245" y2="-25.791676" gradientTransform="matrix(0.113024,0,0,0.326118,-8.78102,50.462022)">
<stop offset="0" style="stop-color:rgb(55.29412%,43.137255%,38.82353%);stop-opacity:1;"/>
<stop offset="1" style="stop-color:rgb(47.450981%,33.333334%,28.235295%);stop-opacity:1;"/>
</linearGradient>
<linearGradient id="linear2" gradientUnits="userSpaceOnUse" x1="254" y1="212.333328" x2="254" y2="-115.75" gradientTransform="matrix(1,0,0,1,0,0)">
<stop offset="0" style="stop-color:rgb(87.843138%,87.843138%,87.843138%);stop-opacity:1;"/>
<stop offset="1" style="stop-color:rgb(93.333334%,93.333334%,93.333334%);stop-opacity:1;"/>
</linearGradient>
<linearGradient id="linear3" gradientUnits="userSpaceOnUse" x1="960" y1="1695.118164" x2="960" y2="175.118134" gradientTransform="matrix(0.0248071,0,0,0.0248071,0,0.00000000000000282)">
<stop offset="0" style="stop-color:rgb(25.882354%,25.882354%,25.882354%);stop-opacity:1;"/>
<stop offset="1" style="stop-color:rgb(38.039216%,38.039216%,38.039216%);stop-opacity:1;"/>
</linearGradient>
</defs>
<g id="surface1">
<path style=" stroke:none;fill-rule:nonzero;fill:url(#linear0);" d="M 11.90625 42.050781 L 35.722656 42.050781 L 35.722656 44.035156 L 11.90625 44.035156 Z M 11.90625 42.050781 "/>
<path style=" stroke:none;fill-rule:nonzero;fill:url(#radial0);" d="M 35.722656 42.050781 L 39.691406 42.050781 L 39.691406 40.066406 L 35.722656 40.066406 Z M 35.722656 42.050781 "/>
<path style=" stroke:none;fill-rule:nonzero;fill:url(#radial1);" d="M 11.90625 42.050781 L 7.9375 42.050781 L 7.9375 44.035156 L 11.90625 44.035156 Z M 11.90625 42.050781 "/>
<path style=" stroke:none;fill-rule:nonzero;fill:url(#radial2);" d="M 11.90625 42.050781 L 7.9375 42.050781 L 7.9375 40.066406 L 11.90625 40.066406 Z M 11.90625 42.050781 "/>
<path style=" stroke:none;fill-rule:nonzero;fill:url(#radial3);" d="M 35.722656 42.050781 L 39.691406 42.050781 L 39.691406 44.035156 L 35.722656 44.035156 Z M 35.722656 42.050781 "/>
<path style=" stroke:none;fill-rule:nonzero;fill:url(#linear1);" d="M 9.921875 9.304688 L 37.707031 9.304688 C 38.804688 9.304688 39.691406 10.195312 39.691406 11.289062 L 39.691406 40.066406 C 39.691406 41.164062 38.804688 42.050781 37.707031 42.050781 L 9.921875 42.050781 C 8.828125 42.050781 7.9375 41.164062 7.9375 40.066406 L 7.9375 11.289062 C 7.9375 10.195312 8.828125 9.304688 9.921875 9.304688 Z M 9.921875 9.304688 "/>
<path style=" stroke:none;fill-rule:nonzero;fill:rgb(100%,100%,100%);fill-opacity:0.392157;" d="M 9.921875 9.445312 C 8.824219 9.445312 7.9375 10.328125 7.9375 11.429688 L 7.9375 11.675781 C 7.9375 10.578125 8.824219 9.691406 9.921875 9.691406 L 37.707031 9.691406 C 38.804688 9.691406 39.691406 10.578125 39.691406 11.675781 L 39.691406 11.429688 C 39.691406 10.328125 38.804688 9.445312 37.707031 9.445312 Z M 9.921875 9.445312 "/>
<path style=" stroke:none;fill-rule:nonzero;fill:rgb(0%,0%,0%);fill-opacity:0.196078;" d="M 9.921875 41.9375 C 8.824219 41.9375 7.9375 41.054688 7.9375 39.953125 L 7.9375 39.707031 C 7.9375 40.804688 8.824219 41.691406 9.921875 41.691406 L 37.707031 41.691406 C 38.804688 41.691406 39.691406 40.804688 39.691406 39.707031 L 39.691406 39.953125 C 39.691406 41.054688 38.804688 41.9375 37.707031 41.9375 Z M 9.921875 41.9375 "/>
<path style="fill:none;stroke-width:3;stroke-linecap:round;stroke-linejoin:miter;stroke:rgb(12.941177%,12.941177%,12.941177%);stroke-opacity:1;stroke-miterlimit:4;" d="M 105.823228 -115.759477 L 402.169928 -115.759477 C 413.877143 -115.759477 423.334574 -106.260384 423.334574 -94.594831 L 423.334574 212.334192 C 423.334574 224.041407 413.877143 233.498837 402.169928 233.498837 L 105.823228 233.498837 C 94.157675 233.498837 84.658582 224.041407 84.658582 212.334192 L 84.658582 -94.594831 C 84.658582 -106.260384 94.157675 -115.759477 105.823228 -115.759477 Z M 105.823228 -115.759477 " transform="matrix(0.093759,0,0,0.093759,0,20.158175)"/>
<path style="fill-rule:nonzero;fill:url(#linear2);stroke-width:3;stroke-linecap:round;stroke-linejoin:round;stroke:rgb(12.941177%,12.941177%,12.941177%);stroke-opacity:1;stroke-miterlimit:4;" d="M 126.987873 -105.177154 L 381.005282 -105.177154 C 386.838059 -105.177154 391.587605 -100.427608 391.587605 -94.594831 L 391.587605 201.751869 C 391.587605 207.584645 386.838059 212.334192 381.005282 212.334192 L 126.987873 212.334192 C 121.155097 212.334192 116.40555 207.584645 116.40555 201.751869 L 116.40555 -94.594831 C 116.40555 -100.427608 121.155097 -105.177154 126.987873 -105.177154 Z M 126.987873 -105.177154 " transform="matrix(0.093759,0,0,0.093759,0,20.158175)"/>
<path style=" stroke:none;fill-rule:nonzero;fill:url(#linear3);" d="M 17.859375 4.34375 C 17.3125 4.34375 16.867188 4.785156 16.867188 5.335938 L 16.867188 6.328125 L 13.890625 6.328125 C 13.34375 6.328125 12.898438 6.769531 12.898438 7.320312 L 12.898438 11.289062 C 12.898438 11.839844 13.34375 12.28125 13.890625 12.28125 L 33.738281 12.28125 C 34.289062 12.28125 34.730469 11.839844 34.730469 11.289062 L 34.730469 7.320312 C 34.730469 6.769531 34.289062 6.328125 33.738281 6.328125 L 30.761719 6.328125 L 30.761719 5.335938 C 30.761719 4.785156 30.316406 4.34375 29.769531 4.34375 Z M 17.859375 4.34375 "/>
<path style=" stroke:none;fill-rule:nonzero;fill:rgb(0%,0%,0%);fill-opacity:0.235294;" d="M 12.898438 11.289062 L 12.898438 12.28125 C 12.898438 12.832031 13.34375 13.273438 13.890625 13.273438 L 33.738281 13.273438 C 34.289062 13.273438 34.730469 12.832031 34.730469 12.28125 L 34.730469 11.289062 C 34.730469 11.839844 34.289062 12.28125 33.738281 12.28125 L 13.890625 12.28125 C 13.34375 12.28125 12.898438 11.839844 12.898438 11.289062 Z M 12.898438 11.289062 "/>
<path style=" stroke:none;fill-rule:nonzero;fill:rgb(100%,100%,100%);fill-opacity:0.313726;" d="M 17.859375 4.34375 C 17.3125 4.34375 16.867188 4.785156 16.867188 5.335938 L 16.867188 5.707031 C 16.867188 5.160156 17.3125 4.714844 17.859375 4.714844 L 29.769531 4.714844 C 30.316406 4.714844 30.761719 5.160156 30.761719 5.707031 L 30.761719 5.335938 C 30.761719 4.785156 30.316406 4.34375 29.769531 4.34375 Z M 13.890625 6.328125 C 13.34375 6.328125 12.898438 6.769531 12.898438 7.320312 L 12.898438 7.691406 C 12.898438 7.144531 13.34375 6.699219 13.890625 6.699219 L 16.867188 6.699219 L 16.867188 6.328125 Z M 30.761719 6.328125 L 30.761719 6.699219 L 33.738281 6.699219 C 34.289062 6.699219 34.730469 7.144531 34.730469 7.691406 L 34.730469 7.320312 C 34.730469 6.769531 34.289062 6.328125 33.738281 6.328125 Z M 30.761719 6.328125 "/>
<path style="fill:none;stroke-width:11.338583;stroke-linecap:round;stroke-linejoin:round;stroke:rgb(12.941177%,12.941177%,12.941177%);stroke-opacity:1;stroke-miterlimit:4;" d="M 719.931288 175.101398 C 697.886148 175.101398 679.935105 192.894975 679.935105 215.097581 L 679.935105 255.093763 L 559.946557 255.093763 C 537.901417 255.093763 519.950375 272.887341 519.950375 295.089946 L 519.950375 455.074677 C 519.950375 477.277282 537.901417 495.070859 559.946557 495.070859 L 1360.027676 495.070859 C 1382.230281 495.070859 1400.023858 477.277282 1400.023858 455.074677 L 1400.023858 295.089946 C 1400.023858 272.887341 1382.230281 255.093763 1360.027676 255.093763 L 1240.039128 255.093763 L 1240.039128 215.097581 C 1240.039128 192.894975 1222.088085 175.101398 1200.042945 175.101398 Z M 719.931288 175.101398 " transform="matrix(0.0248071,0,0,0.0248071,0,0)"/>
<path style=" stroke:none;fill-rule:nonzero;fill:rgb(0%,0%,0%);fill-opacity:0.235294;" d="M 10.914062 39.074219 L 10.914062 39.570312 C 10.914062 40.121094 11.359375 40.5625 11.90625 40.5625 L 35.722656 40.5625 C 36.273438 40.5625 36.714844 40.121094 36.714844 39.570312 L 36.714844 39.074219 C 36.714844 39.625 36.273438 40.066406 35.722656 40.066406 L 11.90625 40.066406 C 11.359375 40.066406 10.914062 39.625 10.914062 39.074219 Z M 10.914062 39.074219 "/>
<path style=" stroke:none;fill-rule:nonzero;fill:rgb(47.058824%,56.470591%,61.176473%);fill-opacity:1;" d="M 18.851562 15.257812 L 33.738281 15.257812 C 34.285156 15.257812 34.730469 15.703125 34.730469 16.25 C 34.730469 16.800781 34.285156 17.242188 33.738281 17.242188 L 18.851562 17.242188 C 18.304688 17.242188 17.859375 16.800781 17.859375 16.25 C 17.859375 15.703125 18.304688 15.257812 18.851562 15.257812 Z M 18.851562 15.257812 "/>
<path style=" stroke:none;fill-rule:nonzero;fill:rgb(47.058824%,56.470591%,61.176473%);fill-opacity:1;" d="M 18.851562 21.214844 L 33.738281 21.214844 C 34.285156 21.214844 34.730469 21.65625 34.730469 22.207031 C 34.730469 22.753906 34.285156 23.199219 33.738281 23.199219 L 18.851562 23.199219 C 18.304688 23.199219 17.859375 22.753906 17.859375 22.207031 C 17.859375 21.65625 18.304688 21.214844 18.851562 21.214844 Z M 18.851562 21.214844 "/>
<path style=" stroke:none;fill-rule:nonzero;fill:rgb(47.058824%,56.470591%,61.176473%);fill-opacity:1;" d="M 18.851562 27.167969 L 33.738281 27.167969 C 34.285156 27.167969 34.730469 27.609375 34.730469 28.160156 C 34.730469 28.707031 34.285156 29.152344 33.738281 29.152344 L 18.851562 29.152344 C 18.304688 29.152344 17.859375 28.707031 17.859375 28.160156 C 17.859375 27.609375 18.304688 27.167969 18.851562 27.167969 Z M 18.851562 27.167969 "/>
<path style=" stroke:none;fill-rule:nonzero;fill:rgb(47.058824%,56.470591%,61.176473%);fill-opacity:1;" d="M 18.851562 33.121094 L 33.738281 33.121094 C 34.285156 33.121094 34.730469 33.53125 34.730469 34.039062 L 34.730469 34.1875 C 34.730469 34.695312 34.285156 35.105469 33.738281 35.105469 L 18.851562 35.105469 C 18.304688 35.105469 17.859375 34.695312 17.859375 34.1875 L 17.859375 34.039062 C 17.859375 33.53125 18.304688 33.121094 18.851562 33.121094 Z M 18.851562 33.121094 "/>
<path style=" stroke:none;fill-rule:nonzero;fill:rgb(47.058824%,56.470591%,61.176473%);fill-opacity:1;" d="M 14.882812 20.21875 C 13.785156 20.21875 12.898438 21.105469 12.898438 22.207031 C 12.898438 23.304688 13.785156 24.191406 14.882812 24.191406 C 15.984375 24.191406 16.867188 23.304688 16.867188 22.207031 C 16.867188 21.105469 15.984375 20.21875 14.882812 20.21875 Z M 14.882812 21.214844 C 15.433594 21.214844 15.875 21.65625 15.875 22.207031 C 15.875 22.753906 15.433594 23.199219 14.882812 23.199219 C 14.335938 23.199219 13.890625 22.753906 13.890625 22.207031 C 13.890625 21.65625 14.335938 21.214844 14.882812 21.214844 Z M 14.882812 21.214844 "/>
<path style=" stroke:none;fill-rule:nonzero;fill:rgb(47.058824%,56.470591%,61.176473%);fill-opacity:1;" d="M 14.882812 26.175781 C 13.785156 26.175781 12.898438 27.058594 12.898438 28.160156 C 12.898438 29.257812 13.785156 30.144531 14.882812 30.144531 C 15.984375 30.144531 16.867188 29.257812 16.867188 28.160156 C 16.867188 27.058594 15.984375 26.175781 14.882812 26.175781 Z M 14.882812 27.167969 C 15.433594 27.167969 15.875 27.609375 15.875 28.160156 C 15.875 28.707031 15.433594 29.152344 14.882812 29.152344 C 14.335938 29.152344 13.890625 28.707031 13.890625 28.160156 C 13.890625 27.609375 14.335938 27.167969 14.882812 27.167969 Z M 14.882812 27.167969 "/>
<path style=" stroke:none;fill-rule:nonzero;fill:rgb(47.058824%,56.470591%,61.176473%);fill-opacity:1;" d="M 14.882812 32.128906 C 13.785156 32.128906 12.898438 33.011719 12.898438 34.113281 C 12.898438 35.210938 13.785156 36.097656 14.882812 36.097656 C 15.984375 36.097656 16.867188 35.210938 16.867188 34.113281 C 16.867188 33.011719 15.984375 32.128906 14.882812 32.128906 Z M 14.882812 33.121094 C 15.433594 33.121094 15.875 33.5625 15.875 34.113281 C 15.875 34.664062 15.433594 35.105469 14.882812 35.105469 C 14.335938 35.105469 13.890625 34.664062 13.890625 34.113281 C 13.890625 33.5625 14.335938 33.121094 14.882812 33.121094 Z M 14.882812 33.121094 "/>
<path style=" stroke:none;fill-rule:nonzero;fill:rgb(47.058824%,56.470591%,61.176473%);fill-opacity:1;" d="M 14.882812 14.265625 C 13.785156 14.265625 12.898438 15.152344 12.898438 16.25 C 12.898438 17.351562 13.785156 18.234375 14.882812 18.234375 C 15.984375 18.234375 16.867188 17.351562 16.867188 16.25 C 16.867188 15.152344 15.984375 14.265625 14.882812 14.265625 Z M 14.882812 15.257812 C 15.433594 15.257812 15.875 15.703125 15.875 16.25 C 15.875 16.800781 15.433594 17.242188 14.882812 17.242188 C 14.335938 17.242188 13.890625 16.800781 13.890625 16.25 C 13.890625 15.703125 14.335938 15.257812 14.882812 15.257812 Z M 14.882812 15.257812 "/>
<path style="fill:none;stroke-width:12;stroke-linecap:round;stroke-linejoin:round;stroke:rgb(95.686275%,26.274511%,21.176471%);stroke-opacity:1;stroke-miterlimit:4;" d="M 137.570196 -57.556702 L 158.734842 -36.392056 L 185.190649 -68.139025 " transform="matrix(0.093759,0,0,0.093759,0,20.158175)"/>
<path style="fill:none;stroke-width:12;stroke-linecap:round;stroke-linejoin:round;stroke:rgb(95.686275%,26.274511%,21.176471%);stroke-opacity:1;stroke-miterlimit:4;" d="M 137.570196 5.978898 L 158.734842 27.143543 L 185.190649 -4.645088 " transform="matrix(0.093759,0,0,0.093759,0,20.158175)"/>
</g>
</svg>
